X: 183
T: Ships Are Sailing
R: reel
M: C|
L: 1/8
K:Edor
"Em"Beed "(G)"BcdB |"D" AD (3FED AD (3FED |"Em" ~E3F GFGA |"(G)" Bdef "G(D)"gfed |
"Em"Beed "(G)"BcdB |"D" AD (3FED AD (3FED |"Em" ~E3F GFGA |1 Bded e3d :||2Bded e3f ||
|:"Em"~g3a bgeg |"D" ~f3g afdf |"Em" gfga bgeg |"D" fedf "Em"e2 ef |
"Em"gfga bgeg |"D" fefg afdf |"G" g2bg "D"f2af |1 "Em"edef gfef :||2 edef gfed||


